X: 4303
T: Mrs Crawford's Favorite    Strathspey
%R: air, strathspey
N: This is version 2, for ABC software that understands voice overlays.
B: Niel Gow & Sons "A Fourth Collection of Strathspey Reels, etc." v.4 p.30 #3
Z: 2022 John Chambers <jc:trillian.mit.edu>
M: C
L: 1/8
Q: "Slow"
K: D
% - - - - - - - - - -
V: 1 staves=2 clef=treble
% Voice 1 reformatted for 2 6-bar lines.
G |\
(F<A)A>B (B/A/)G/F/ AB/c/ | d>e {de}f>e dBB{c}d |\
(F<A)A>B (B/A/)G/F/ {F}d>B | (B/A/).G/.F/ (A/G/).F/.E/{E}D2D :| f/g/ |\
Ta>baf TdAdf | Te>f (g/f/)(e/d/) TB2 Bf/g/ |
Ta>baf TdAdf | ef/g/ (a/g/)(f/e/) Td2 df/g/ ||\
Ta>baf TdAdf | e>f (g/f/)(e/d/) TB2 B(c/d/) |"_Expr.o"\
A>BAF Ad (B/A/)(G/F/) | (TE/D/E/).F/ (A/G/)F/E/ [D2A,2F,2] [DA,F,] |]
% - - - - - - - - - -
% Voice 2 preserves the staff layout in the book.
V: 2 clef=bass middle=d
z | x2fg x4 & d2d2 d2fg | f>a d'c' b2g2 | f2x2 x4 & d2fg d2bg | fg aA dAD :| z | d2d'2 f2d2 | cd ef
g2G2 | d2d'2 f2df | g2aA d2D2 || d2d'2 f2d2 | cd ef g2Gz |"_Expr.o" D2d2 D2d2 | F2A2 D2D |]


